X:1
T:Morgan Megan
T:Turlough O'Carolan
T:arr. sandy stehling
T:Morgan Megan
C:Turlough O'Carolan
%%score ( 1 2 )
L:1/8
Q:1/4=100
M:2/4
K:G
V:1 treble transpose=-12 nm="MusicXML Part"
V:2 treble transpose=-12 
V:1
 DG GA | c/B/A/G/ A/B/c/d/ | [ce]A AG | F/A/F/E/ D2 | GG/F/ GB | A/G/F/E/ D2 | F/G/A A[CE] | %7
 [DF][A,D] F,E | GG A/G/A/F/ | G2 z A/B/ | [Ac]>B AG | d2 [Gce]2 | dB c/B/A/G/ | F/G/F/E/ DE/F/ | %14
 GG A/G/A/F/ | G2 z d/c/ | Bd ef | [GBg]2 B/c/d | [GBg]2 B/c/d | [Ace]/d/c/B/ A2 | B/A/B/c/ dG | %21
 [Gce]c dB | cA dB | [A,F]D DG | EC C>D | EC C>G | FD DA/G/ | F/G/F/E/ D2 | d2 [Ace]/d/c/B/ | %29
 [Ac]/B/A/G/ F/G/F/E/ | DG A/G/A/F/ | [G,B,DG]4 |] %32
V:2
 G,2 D2 | A,2 F,2 | A,2 C2 | A,2 F,2 | G,2 D2 | F,2 z2 | A,2 F,2 | x4 | G,2 F,2 | G,2 D2 | A,2 C2 | %11
 B,2 C2 | B,2 A,2 | D2 z2 | G,2 F,2 | G,2 D2 | G,2 F,2 | E,E z2 | E,E z2 | A,2 F,2 | G,2 B,2 | %21
 [CE]2 B,2 | A,2 D2 | x4 | x4 | x4 | x4 | z2 z F, | G,D A,2 | F,2 A,2 | G,2 F,2 | x4 |] %32

